packages/tokens/icons/abTesting/size32Px.svg

<svg viewBox="0 0 32 32" fill="none" xmlns="http://www.w3.org/2000/svg" width="1em" height="1em"><path d="M2.5 21.1529L2.5 8.50012C2.5 7.39555 3.39543 6.50013 4.49999 6.50012L27.5 6.50001C28.6046 6.5 29.5 7.39544 29.5 8.50001L29.5 21.1528C29.5 22.2574 28.6046 23.1528 27.5 23.1528L4.50001 23.1529C3.39544 23.1529 2.5 22.2575 2.5 21.1529Z" stroke="currentColor" stroke-linecap="round"/><path d="M15.9431 23.1529L15.9431 27.5383" stroke="currentColor"/><path d="M8.66406 27.5383L23.1432 27.5383" stroke="currentColor" stroke-linecap="round"/><path d="M8.48121 11.09H9.74121L12.4512 18H11.0312L10.4312 16.41H7.72121L7.12121 18H5.77121L8.48121 11.09ZM10.1112 15.37L9.08121 12.58L8.04121 15.37H10.1112ZM17.4816 10.08L18.2716 10.43L14.1216 18.96L13.3416 18.6L17.4816 10.08ZM19.8441 18V11.1H22.0541C22.3474 11.1 22.6374 11.1233 22.9241 11.17C23.2174 11.2167 23.4774 11.3033 23.7041 11.43C23.9374 11.5567 24.1241 11.7333 24.2641 11.96C24.4041 12.1867 24.4741 12.48 24.4741 12.84C24.4741 13.0467 24.4374 13.2333 24.3641 13.4C24.2974 13.5667 24.2108 13.7133 24.1041 13.84C24.0041 13.9667 23.8908 14.0733 23.7641 14.16C23.6374 14.24 23.5174 14.3033 23.4041 14.35V14.37C23.8508 14.47 24.2074 14.6633 24.4741 14.95C24.7474 15.23 24.8841 15.59 24.8841 16.03C24.8841 16.41 24.8041 16.7333 24.6441 17C24.4908 17.26 24.2974 17.4667 24.0641 17.62C23.8508 17.7533 23.5974 17.85 23.3041 17.91C23.0108 17.97 22.6974 18 22.3641 18H19.8441ZM22.2641 16.98C22.4441 16.98 22.6108 16.9667 22.7641 16.94C22.9241 16.9133 23.0608 16.8633 23.1741 16.79C23.2941 16.7167 23.3874 16.6133 23.4541 16.48C23.5274 16.3467 23.5641 16.1767 23.5641 15.97C23.5641 15.7767 23.5241 15.6167 23.4441 15.49C23.3708 15.3567 23.2674 15.2433 23.1341 15.15C23.0008 15.0567 22.8608 14.9967 22.7141 14.97C22.5741 14.9433 22.4041 14.93 22.2041 14.93H21.1441V16.98H22.2641ZM21.1441 12.12V13.98H21.9541C22.1274 13.98 22.2841 13.9667 22.4241 13.94C22.5708 13.9133 22.6974 13.8633 22.8041 13.79C22.9174 13.7167 23.0041 13.6167 23.0641 13.49C23.1241 13.3633 23.1541 13.2033 23.1541 13.01C23.1541 12.71 23.0474 12.4867 22.8341 12.34C22.6274 12.1933 22.3541 12.12 22.0141 12.12H21.1441Z" fill="currentColor"/></svg>

<svg xmlns="http://www.w3.org/2000/svg" fill="none" viewBox="0 0 32 32" width="1em" height="1em"><path stroke="currentColor" stroke-linecap="round" d="M2.5 21.153V8.5a2 2 0 0 1 2-2h23a2 2 0 0 1 2 2v12.653a2 2 0 0 1-2 2h-23a2 2 0 0 1-2-2Z"/><path stroke="currentColor" d="M15.943 23.153v4.385"/><path stroke="currentColor" stroke-linecap="round" d="M8.664 27.538h14.48"/><path fill="currentColor" d="M8.481 11.09h1.26l2.71 6.91h-1.42l-.6-1.59h-2.71l-.6 1.59h-1.35l2.71-6.91Zm1.63 4.28-1.03-2.79-1.04 2.79h2.07Zm7.37-5.29.79.35-4.15 8.53-.78-.36 4.14-8.52ZM19.845 18v-6.9h2.21c.293 0 .583.023.87.07.293.047.553.133.78.26.233.127.42.303.56.53.14.227.21.52.21.88 0 .207-.037.393-.11.56a1.599 1.599 0 0 1-.26.44 1.54 1.54 0 0 1-.34.32 2.38 2.38 0 0 1-.36.19v.02c.447.1.803.293 1.07.58.273.28.41.64.41 1.08 0 .38-.08.703-.24.97a1.85 1.85 0 0 1-.58.62c-.213.133-.467.23-.76.29-.293.06-.607.09-.94.09h-2.52Zm2.42-1.02c.18 0 .347-.013.5-.04a1.08 1.08 0 0 0 .41-.15.744.744 0 0 0 .28-.31c.073-.133.11-.303.11-.51a.884.884 0 0 0-.12-.48 1.003 1.003 0 0 0-.31-.34 1.059 1.059 0 0 0-.42-.18c-.14-.027-.31-.04-.51-.04h-1.06v2.05h1.12Zm-1.12-4.86v1.86h.81c.173 0 .33-.013.47-.04a.968.968 0 0 0 .38-.15.712.712 0 0 0 .26-.3c.06-.127.09-.287.09-.48 0-.3-.107-.523-.32-.67-.207-.147-.48-.22-.82-.22h-.87Z"/></svg>
